src/assets/addpaths.svg

<svg width="16px" height="16px" viewBox="0 0 16 16" version="1.1" xmlns="http://www.w3.org/2000/svg" xmlns:xlink="http://www.w3.org/1999/xlink">
  <defs>
    <clipPath id="pathClip">
      <path d="M 0 0 v 16 h 10 v -4 h 2 v -2 h 4 v -10 Z"></path>
    </clipPath>
  </defs>
  <g clip-path="url(#pathClip)">
    <rect fill-opacity="0.3" x="4" y="4" width="8" height="8"></rect>
    <path d="M14,4.91347619 L14,11.0862971 C14.5826296,11.2939899 15,11.8527696 15,12.5008327 L15,13.4991673 C15,14.3280543 14.3214545,15 13.4991673,15 L12.5008327,15 C11.848545,15 11.293448,14.5797897 11.0865238,14 L4.91370291,14 C4.7060101,14.5826296 4.14723036,15 3.49916726,15 L2.50083274,15 C1.6719457,15 1,14.3214545 1,13.4991673 L1,12.5008327 C1,11.848545 1.42021033,11.293448 2,11.0865238 L2,4.91370291 C1.41737039,4.7060101 1,4.14723036 1,3.49916726 L1,2.50083274 C1,1.6719457 1.67854548,1 2.50083274,1 L3.49916726,1 C4.15145502,1 4.70655199,1.42021033 4.91347619,2 L11.0862971,2 C11.2939899,1.41737039 11.8527696,1 12.5008327,1 L13.4991673,1 C14.3280543,1 15,1.67854548 15,2.50083274 L15,3.49916726 C15,4.15145502 14.5797897,4.70655199 14,4.91347619 L14,4.91347619 Z M12,2.50083274 L12,3.49916726 C12,3.77212694 12.227183,4 12.5008327,4 L13.4991673,4 C13.7721269,4 14,3.77281701 14,3.49916726 L14,2.50083274 C14,2.22787306 13.772817,2 13.4991673,2 L12.5008327,2 C12.2278731,2 12,2.22718299 12,2.50083274 Z M2,2.50083274 L2,3.49916726 C2,3.77212694 2.22718299,4 2.50083274,4 L3.49916726,4 C3.77212694,4 4,3.77281701 4,3.49916726 L4,2.50083274 C4,2.22787306 3.77281701,2 3.49916726,2 L2.50083274,2 C2.22787306,2 2,2.22718299 2,2.50083274 Z M12,12.5008327 L12,13.4991673 C12,13.7721269 12.227183,14 12.5008327,14 L13.4991673,14 C13.7721269,14 14,13.772817 14,13.4991673 L14,12.5008327 C14,12.2278731 13.772817,12 13.4991673,12 L12.5008327,12 C12.2278731,12 12,12.227183 12,12.5008327 Z M2,12.5008327 L2,13.4991673 C2,13.7721269 2.22718299,14 2.50083274,14 L3.49916726,14 C3.77212694,14 4,13.772817 4,13.4991673 L4,12.5008327 C4,12.2278731 3.77281701,12 3.49916726,12 L2.50083274,12 C2.22787306,12 2,12.227183 2,12.5008327 Z M11.0865238,4 L4.91370291,4 C4.76215642,4.42512531 4.42368661,4.76226444 4,4.91347619 L4,11.0862971 C4.42512531,11.2378436 4.76226444,11.5763134 4.91347619,12 L11.0862971,12 C11.2378436,11.5748747 11.5763134,11.2377356 12,11.0865238 L12,4.91370291 C11.5748747,4.76215642 11.2377356,4.42368661 11.0865238,4 L11.0865238,4 Z"></path>
  </g>
  <g transform="translate(-0.25,-0.25)">
    <polygon points="14 13 14 11 13 11 13 13 11 13 11 14 13 14 13 16 14 16 14 14 16 14 16 13"></polygon>
  </g>
</svg>

<svg width="16" height="16" viewBox="0 0 16 16" xmlns="http://www.w3.org/2000/svg"><defs><clipPath id="a"><path d="M0 0v16h10v-4h2v-2h4V0z"/></clipPath></defs><g clip-path="url(#a)"><path fill-opacity=".3" d="M4 4h8v8H4z"/><path d="M14 4.913v6.173c.583.208 1 .767 1 1.415v1c0 .83-.68 1.5-1.5 1.5h-1c-.65 0-1.207-.42-1.413-1H4.914c-.208.586-.767 1-1.415 1h-1c-.83 0-1.5-.68-1.5-1.5v-1c0-.65.42-1.204 1-1.41V4.914c-.586-.208-1-.767-1-1.415v-1C1 1.67 1.68 1 2.5 1h1c.65 0 1.207.42 1.413 1h6.173c.208-.583.767-1 1.415-1h1c.83 0 1.5.68 1.5 1.5v1c0 .65-.42 1.207-1 1.413zM12 2.5v1c0 .272.227.5.5.5h1c.272 0 .5-.227.5-.5v-1c0-.272-.227-.5-.5-.5h-1c-.272 0-.5.227-.5.5zm-10 0v1c0 .272.227.5.5.5h1c.272 0 .5-.227.5-.5v-1c0-.272-.227-.5-.5-.5h-1c-.272 0-.5.227-.5.5zm10 10v1c0 .272.227.5.5.5h1c.272 0 .5-.227.5-.5v-1c0-.272-.227-.5-.5-.5h-1c-.272 0-.5.227-.5.5zm-10 0v1c0 .272.227.5.5.5h1c.272 0 .5-.227.5-.5v-1c0-.272-.227-.5-.5-.5h-1c-.272 0-.5.227-.5.5zM11.087 4H4.914c-.152.425-.49.762-.914.913v6.173c.425.152.762.49.913.914h6.173c.152-.425.49-.762.914-.913V4.914c-.425-.152-.762-.49-.913-.914z"/></g><path d="M13.75 12.75v-2h-1v2h-2v1h2v2h1v-2h2v-1"/></svg>
